X: 29
T:Roaring Barmaid, The
C:Anthony Sullivan
R:Jig
L:1/8
B:Sully's Irish Music Book, Vol.1; Halshaw Music 1979
Z:Paul Kinder
N:Posted to the woodenflute mailing list June 2002
K:G
G3 EDE|G3 EDE|G3 BGG|dGG BGG|
G3 EDE|G3 EDE|GAB deg|d>eg edB:|
|:deg abb|b3 deg|abb bag|edB deg|
abb b3|agg bgg|agg egg|d>eg edB:||
